src/svg/radio-tower.svg

<svg height="16" width="16" xmlns="http://www.w3.org/2000/svg" viewBox="0 0 16 16">
  <path d="M4.79 6.11c0.25-0.25 0.25-0.67 0-0.92-0.32-0.33-0.48-0.76-0.48-1.19 0-0.43 0.16-0.86 0.48-1.19 0.25-0.26 0.25-0.67 0-0.92-0.12-0.13-0.29-0.19-0.45-0.19-0.16 0-0.33 0.06-0.45 0.19-0.57 0.58-0.85 1.35-0.85 2.11 0 0.76 0.29 1.53 0.85 2.11C4.14 6.36 4.55 6.36 4.79 6.11zM2.33 0.52c-0.13-0.13-0.29-0.19-0.46-0.19-0.16 0-0.33 0.06-0.46 0.19C0.48 1.48 0.01 2.74 0.01 3.99 0.01 5.25 0.48 6.51 1.41 7.47c0.25 0.26 0.66 0.26 0.91 0 0.25-0.26 0.25-0.68 0-0.94-0.68-0.7-1.02-1.62-1.02-2.54s0.34-1.84 1.02-2.54C2.58 1.2 2.58 0.78 2.33 0.52zM8.02 5.62c0.9 0 1.62-0.73 1.62-1.62 0-0.9-0.73-1.62-1.62-1.62-0.9 0-1.62 0.73-1.62 1.62C6.39 4.89 7.12 5.62 8.02 5.62zM14.59 0.53c-0.25-0.26-0.66-0.26-0.91 0-0.25 0.26-0.25 0.68 0 0.94 0.68 0.7 1.02 1.62 1.02 2.54 0 0.92-0.34 1.83-1.02 2.54-0.25 0.26-0.25 0.68 0 0.94 0.13 0.13 0.29 0.19 0.46 0.19 0.16 0 0.33-0.06 0.46-0.19 0.93-0.96 1.4-2.22 1.4-3.48C15.99 2.75 15.52 1.49 14.59 0.53zM8.02 6.92L8.02 6.92c-0.41 0-0.83-0.1-1.2-0.3L3.67 14.99h1.49l0.86-1h4l0.84 1h1.49L9.21 6.62C8.83 6.82 8.43 6.92 8.02 6.92zM8.01 7.4L9.02 11H7.02L8.01 7.4zM6.02 12.99l1-1h2l1 1H6.02zM11.21 1.89c-0.25 0.25-0.25 0.67 0 0.92 0.32 0.33 0.48 0.76 0.48 1.19 0 0.43-0.16 0.86-0.48 1.19-0.25 0.26-0.25 0.67 0 0.92 0.12 0.13 0.29 0.19 0.45 0.19 0.16 0 0.32-0.06 0.45-0.19 0.57-0.58 0.85-1.35 0.85-2.11 0-0.76-0.28-1.53-0.85-2.11C11.86 1.64 11.45 1.64 11.21 1.89z" />
</svg>

<?xml version="1.0" encoding="UTF-8" standalone="no"?>
<svg width="16px" height="16px" viewBox="0 0 16 16" version="1.1" xmlns="http://www.w3.org/2000/svg" xmlns:xlink="http://www.w3.org/1999/xlink">
    <!-- Generator: Sketch 3.7.1 (28215) - http://www.bohemiancoding.com/sketch -->
    <title>radio-tower</title>
    <desc>Created with Sketch.</desc>
    <defs></defs>
    <g id="Octicons" stroke="none" stroke-width="1" fill="none" fill-rule="evenodd">
        <g id="radio-tower" fill="#000000">
            <path d="M4.79,6.11 C5.04,5.86 5.04,5.44 4.79,5.19 C4.47,4.86 4.31,4.43 4.31,4 C4.31,3.57 4.47,3.14 4.79,2.81 C5.04,2.55 5.04,2.14 4.79,1.89 C4.67,1.76 4.5,1.7 4.34,1.7 C4.18,1.7 4.01,1.76 3.89,1.89 C3.32,2.47 3.04,3.24 3.04,4 C3.04,4.76 3.33,5.53 3.89,6.11 C4.14,6.36 4.55,6.36 4.79,6.11 L4.79,6.11 Z M2.33,0.52 C2.2,0.39 2.04,0.33 1.87,0.33 C1.71,0.33 1.54,0.39 1.41,0.52 C0.48,1.48 0.01,2.74 0.01,3.99 C0.01,5.25 0.48,6.51 1.41,7.47 C1.66,7.73 2.07,7.73 2.32,7.47 C2.57,7.21 2.57,6.79 2.32,6.53 C1.64,5.83 1.3,4.91 1.3,3.99 C1.3,3.07 1.64,2.15 2.32,1.45 C2.58,1.2 2.58,0.78 2.33,0.52 L2.33,0.52 Z M8.02,5.62 C8.92,5.62 9.64,4.89 9.64,4 C9.64,3.1 8.91,2.38 8.02,2.38 C7.12,2.38 6.4,3.11 6.4,4 C6.39,4.89 7.12,5.62 8.02,5.62 L8.02,5.62 Z M14.59,0.53 C14.34,0.27 13.93,0.27 13.68,0.53 C13.43,0.79 13.43,1.21 13.68,1.47 C14.36,2.17 14.7,3.09 14.7,4.01 C14.7,4.93 14.36,5.84 13.68,6.55 C13.43,6.81 13.43,7.23 13.68,7.49 C13.81,7.62 13.97,7.68 14.14,7.68 C14.3,7.68 14.47,7.62 14.6,7.49 C15.53,6.53 16,5.27 16,4.01 C15.99,2.75 15.52,1.49 14.59,0.53 L14.59,0.53 Z M8.02,6.92 L8.02,6.92 C7.61,6.92 7.19,6.82 6.82,6.62 L3.67,14.99 L5.16,14.99 L6.02,13.99 L10.02,13.99 L10.86,14.99 L12.35,14.99 L9.21,6.62 C8.83,6.82 8.43,6.92 8.02,6.92 L8.02,6.92 Z M8.01,7.4 L9.02,11 L7.02,11 L8.01,7.4 L8.01,7.4 Z M6.02,12.99 L7.02,11.99 L9.02,11.99 L10.02,12.99 L6.02,12.99 L6.02,12.99 Z M11.21,1.89 C10.96,2.14 10.96,2.56 11.21,2.81 C11.53,3.14 11.69,3.57 11.69,4 C11.69,4.43 11.53,4.86 11.21,5.19 C10.96,5.45 10.96,5.86 11.21,6.11 C11.33,6.24 11.5,6.3 11.66,6.3 C11.82,6.3 11.98,6.24 12.11,6.11 C12.68,5.53 12.96,4.76 12.96,4 C12.96,3.24 12.68,2.47 12.11,1.89 C11.86,1.64 11.45,1.64 11.21,1.89 L11.21,1.89 Z" id="Shape"></path>
        </g>
    </g>
</svg>
